files/minergate.svg

<svg clip-rule="evenodd" fill-rule="evenodd" stroke-linejoin="round" stroke-miterlimit="2" viewBox="0 0 560 400" xmlns="http://www.w3.org/2000/svg"><g fill-rule="nonzero" transform="matrix(2.4 0 0 2.4 70 154.04)"><path d="m24.4 24.7 6.4-10.7-2.1-1.6-3.2 2.5-7.9-6.1-17.6 29.5h8.9l10.4-17.4z" fill="#4e97d6"/><path d="m35.4 29.8-3.6-5.6-8.4 14.1h1.8l7.6-6.2 2.6 3.9 3.6-2.9 6.5 5.2h1.5l-7.2-11.9z" fill="#003a4c"/><path d="m39.5 0-8.7 14.1-6.4 10.7-5.1-3.8-10.4 17.3h14.5l8.4-14.1 3.6 5.7 4.4-3.4 7.2 11.8h15.6z" fill="#1c6499"/><path d="m79.4 26.8v-8.4l-3.3 6.2h-1.3l-3.3-6.2v8.4h-2.5v-12.6h2.6l3.7 7.2 3.8-7.2h2.6v12.6zm6.8 0v-10h2.6v10zm8.9-5.3v5.3h-2.6v-10h2l5.2 5.4v-5.4h2.6v10h-2zm18.9 3.1v2.2h-7.9v-10h7.7v2.2h-5.2v1.7h4.4v2.1h-4.4v1.8zm3.4 2.3v-10.1h5c.5 0 1 .1 1.5.3s.8.5 1.1.8.6.7.8 1.1.3.8.3 1.3c0 .6-.2 1.2-.5 1.7s-.8.9-1.3 1.2l2.6 3.7h-2.9l-2.2-3.1h-1.8v3.1zm2.6-5.5h2.4c.3 0 .6-.1.8-.3s.3-.5.3-.9-.1-.7-.4-.9-.5-.3-.8-.3h-2.3zm18.8 4c-1 1-2.2 1.5-3.5 1.5-.8 0-1.6-.2-2.3-.5s-1.4-.8-1.9-1.4-1-1.3-1.3-2.1-.5-1.6-.5-2.6c0-.9.2-1.7.5-2.4.3-.8.7-1.4 1.3-2s1.2-1 1.9-1.4c.7-.3 1.6-.5 2.4-.5 1.2 0 2.2.2 3.1.7.8.5 1.5 1.2 1.9 2l-1.8 1.4c-.3-.6-.8-1.1-1.3-1.4-.6-.3-1.2-.5-1.9-.5-.5 0-1 .1-1.5.3-.4.2-.8.5-1.1.9s-.6.8-.7 1.4c-.2.5-.3 1-.3 1.6s.1 1.1.3 1.7c.2.5.5 1 .8 1.3.3.4.7.7 1.2.9s1 .3 1.5.3c1.2 0 2.3-.6 3.3-1.7v-.9h-2.5v-1.8h4.6v6.5h-2v-1.3zm4.7 1.4 4.3-10h2.1l4.3 10h-2.7l-.9-2.1h-3.5l-.9 2.1zm5.3-6.9-1.2 2.6h2.4zm15.5-.9h-3.4v7.8h-2.6v-7.8h-3.4v-2.2h9.4zm10.7 5.6v2.2h-7.9v-10h7.7v2.2h-5.2v1.7h4.4v2.1h-4.4v1.8z" fill="#0d0d0d"/></g></svg>

<?xml version="1.0" encoding="UTF-8" standalone="no"?>
<!DOCTYPE svg PUBLIC "-//W3C//DTD SVG 1.1//EN" "http://www.w3.org/Graphics/SVG/1.1/DTD/svg11.dtd">
<svg width="100%" height="100%" viewBox="0 0 560 400" version="1.1" xmlns="http://www.w3.org/2000/svg" xmlns:xlink="http://www.w3.org/1999/xlink" xml:space="preserve" xmlns:serif="http://www.serif.com/" style="fill-rule:evenodd;clip-rule:evenodd;stroke-linejoin:round;stroke-miterlimit:2;">
    <g transform="matrix(2.4,0,0,2.4,70,154.04)">
        <g>
            <path d="M24.4,24.7L30.8,14L28.7,12.4L25.5,14.9L17.6,8.8L0,38.3L8.9,38.3L19.3,20.9L24.4,24.7Z" style="fill:rgb(78,151,214);fill-rule:nonzero;"/>
            <path d="M35.4,29.8L31.8,24.2L23.4,38.3L25.2,38.3L32.8,32.1L35.4,36L39,33.1L45.5,38.3L47,38.3L39.8,26.4L35.4,29.8Z" style="fill:rgb(0,58,76);fill-rule:nonzero;"/>
            <path d="M39.5,0L30.8,14.1L24.4,24.8L19.3,21L8.9,38.3L23.4,38.3L31.8,24.2L35.4,29.9L39.8,26.5L47,38.3L62.6,38.3L39.5,0Z" style="fill:rgb(28,100,153);fill-rule:nonzero;"/>
            <path d="M79.4,26.8L79.4,18.4L76.1,24.6L74.8,24.6L71.5,18.4L71.5,26.8L69,26.8L69,14.2L71.6,14.2L75.3,21.4L79.1,14.2L81.7,14.2L81.7,26.8L79.4,26.8ZM86.2,26.8L86.2,16.8L88.8,16.8L88.8,26.8L86.2,26.8ZM95.1,21.5L95.1,26.8L92.5,26.8L92.5,16.8L94.5,16.8L99.7,22.2L99.7,16.8L102.3,16.8L102.3,26.8L100.3,26.8L95.1,21.5ZM114,24.6L114,26.8L106.1,26.8L106.1,16.8L113.8,16.8L113.8,19L108.6,19L108.6,20.7L113,20.7L113,22.8L108.6,22.8L108.6,24.6L114,24.6ZM117.4,26.9L117.4,16.8L122.4,16.8C122.9,16.8 123.4,16.9 123.9,17.1C124.4,17.3 124.7,17.6 125,17.9C125.3,18.2 125.6,18.6 125.8,19C126,19.4 126.1,19.8 126.1,20.3C126.1,20.9 125.9,21.5 125.6,22C125.3,22.5 124.8,22.9 124.3,23.2L126.9,26.9L124,26.9L121.8,23.8L120,23.8L120,26.9L117.4,26.9ZM120,21.4L122.4,21.4C122.7,21.4 123,21.3 123.2,21.1C123.4,20.9 123.5,20.6 123.5,20.2C123.5,19.8 123.4,19.5 123.1,19.3C122.8,19.1 122.6,19 122.3,19L120,19L120,21.4ZM138.8,25.4C137.8,26.4 136.6,26.9 135.3,26.9C134.5,26.9 133.7,26.7 133,26.4C132.3,26.1 131.6,25.6 131.1,25C130.6,24.4 130.1,23.7 129.8,22.9C129.5,22.1 129.3,21.3 129.3,20.3C129.3,19.4 129.5,18.6 129.8,17.9C130.1,17.1 130.5,16.5 131.1,15.9C131.7,15.3 132.3,14.9 133,14.5C133.7,14.2 134.6,14 135.4,14C136.6,14 137.6,14.2 138.5,14.7C139.3,15.2 140,15.9 140.4,16.7L138.6,18.1C138.3,17.5 137.8,17 137.3,16.7C136.7,16.4 136.1,16.2 135.4,16.2C134.9,16.2 134.4,16.3 133.9,16.5C133.5,16.7 133.1,17 132.8,17.4C132.5,17.8 132.2,18.2 132.1,18.8C131.9,19.3 131.8,19.8 131.8,20.4C131.8,21 131.9,21.5 132.1,22.1C132.3,22.6 132.6,23.1 132.9,23.4C133.2,23.8 133.6,24.1 134.1,24.3C134.6,24.5 135.1,24.6 135.6,24.6C136.8,24.6 137.9,24 138.9,22.9L138.9,22L136.4,22L136.4,20.2L141,20.2L141,26.7L139,26.7L139,25.4L138.8,25.4ZM143.5,26.8L147.8,16.8L149.9,16.8L154.2,26.8L151.5,26.8L150.6,24.7L147.1,24.7L146.2,26.8L143.5,26.8ZM148.8,19.9L147.6,22.5L150,22.5L148.8,19.9ZM164.3,19L160.9,19L160.9,26.8L158.3,26.8L158.3,19L154.9,19L154.9,16.8L164.3,16.8L164.3,19ZM175,24.6L175,26.8L167.1,26.8L167.1,16.8L174.8,16.8L174.8,19L169.6,19L169.6,20.7L174,20.7L174,22.8L169.6,22.8L169.6,24.6L175,24.6Z" style="fill:rgb(13,13,13);fill-rule:nonzero;"/>
        </g>
    </g>
</svg>
